assets/img/braze_icons/rocket-02.svg

<svg fill="none" height="24" viewBox="0 0 24 24" width="24" xmlns="http://www.w3.org/2000/svg"><g fill="#801ed7"><path d="m15.2311 2.71764c2.0749-1.14118 4.4072-1.732548 6.7751-1.717861.5499.003411.9938.450121.9938.999981 0 2.8103-.7884 7.70771-5.8524 11.41664.0852.3576.1822.8282.2492 1.3483.0731.5674.1143 1.2205.0545 1.8632-.0589.634-.2226 1.3318-.6192 1.9268l-.0009.0013c-.679 1.0149-1.9595 1.6034-2.854 1.9278-.4806.1744-.9247.298-1.2479.3782-.2435.0604-.4222.0971-.5033.1129-.3082.0586-.6222-.003-.8669-.2072-.2275-.19-.3591-.4712-.3591-.7677v-4.586l-2.41395-2.414h-4.58604c-.29647 0-.57766-.1315-.76766-.3591s-.26921-.5278-.21626-.8195c.03372-.1849.07669-.3684.12192-.5507.08016-.3232.20383-.7672.37818-1.2479.32446-.89451.91288-2.17501 1.9278-2.85395l.00132-.00088c.59499-.39666 1.29278-.56035 1.92684-.61928.64268-.05974 1.29581-.01859 1.86318.05453.52552.06773 1.00057.16599 1.35947.25186 1.2109-1.70898 2.795-3.12476 4.6363-4.13744z"/><path clip-rule="evenodd" d="m6.00316 14.9883c-.78316-.0242-1.54768.2416-2.14694.7463-.52678.4428-.91357 1.0526-1.20005 1.6392-.29219.5981-.51423 1.2437-.68009 1.8235-.16677.5831-.28268 1.1208-.35694 1.5119-.03727.1963-.06437.3574-.08237.4709-.00977.0616-.01893.1234-.02765.1852l-.00023.0016c-.04129.3089.0637.6197.28402.84.22033.2204.53163.3253.84047.284.0622-.0088.12433-.018.18637-.0278.11353-.018.27461-.0451.47087-.0824.39114-.0742.92888-.1902 1.51191-.3569.57985-.1659 1.22539-.3879 1.82357-.6801.58631-.2864 1.19598-.673 1.63865-1.1995 1.02103-1.2092 1.03627-3.0926-.15214-4.266l-.01215-.0118c-.56699-.5411-1.31387-.8538-2.0973-.8781z" fill-rule="evenodd"/></g></svg>

<svg width="24" height="24" viewBox="0 0 24 24" fill="none" xmlns="http://www.w3.org/2000/svg">
<path d="M15.2311 2.71764C17.306 1.57646 19.6383 0.985092 22.0062 0.999779C22.5561 1.00319 23 1.4499 23 1.99976C23 4.81006 22.2116 9.70747 17.1476 13.4164C17.2328 13.774 17.3298 14.2446 17.3968 14.7647C17.4699 15.3321 17.5111 15.9852 17.4513 16.6279C17.3924 17.2619 17.2287 17.9597 16.8321 18.5547L16.8312 18.556C16.1522 19.5709 14.8717 20.1594 13.9772 20.4838C13.4966 20.6582 13.0525 20.7818 12.7293 20.862C12.4858 20.9224 12.3071 20.9591 12.226 20.9749C11.9178 21.0335 11.6038 20.9719 11.3591 20.7677C11.1316 20.5777 11 20.2965 11 20V15.414L8.58605 13H4.00001C3.70354 13 3.42235 12.8685 3.23235 12.6409C3.04235 12.4133 2.96314 12.1131 3.01609 11.8214C3.04981 11.6365 3.09278 11.453 3.13801 11.2707C3.21817 10.9475 3.34184 10.5035 3.51619 10.0228C3.84065 9.12829 4.42907 7.84779 5.44399 7.16885L5.44531 7.16797C6.0403 6.77131 6.73809 6.60762 7.37215 6.54869C8.01483 6.48895 8.66796 6.5301 9.23533 6.60322C9.76085 6.67095 10.2359 6.76921 10.5948 6.85508C11.8057 5.1461 13.3898 3.73032 15.2311 2.71764Z" fill="#801ED7"/>
<path fill-rule="evenodd" clip-rule="evenodd" d="M6.00316 14.9883C5.22 14.9641 4.45548 15.2299 3.85622 15.7346C3.32944 16.1774 2.94265 16.7872 2.65617 17.3738C2.36398 17.9719 2.14194 18.6175 1.97608 19.1973C1.80931 19.7804 1.6934 20.3181 1.61914 20.7092C1.58187 20.9055 1.55477 21.0666 1.53677 21.1801C1.527 21.2417 1.51784 21.3035 1.50912 21.3653L1.50889 21.3669C1.4676 21.6758 1.57259 21.9866 1.79291 22.2069C2.01324 22.4273 2.32454 22.5322 2.63338 22.4909C2.69558 22.4821 2.75771 22.4729 2.81975 22.4631C2.93328 22.4451 3.09436 22.418 3.29062 22.3807C3.68176 22.3065 4.2195 22.1905 4.80253 22.0238C5.38238 21.8579 6.02792 21.6359 6.6261 21.3437C7.21241 21.0573 7.82208 20.6707 8.26475 20.1442C9.28578 18.935 9.30102 17.0516 8.11261 15.8782L8.10046 15.8664C7.53347 15.3253 6.78659 15.0126 6.00316 14.9883Z" fill="#801ED7"/>
</svg>
